assets/633334.svg

<?xml version="1.0" encoding="UTF-8" standalone="no"?>
<svg
   xmlns:dc="http://purl.org/dc/elements/1.1/"
   xmlns:cc="http://creativecommons.org/ns#"
   xmlns:rdf="http://www.w3.org/1999/02/22-rdf-syntax-ns#"
   xmlns:svg="http://www.w3.org/2000/svg"
   xmlns="http://www.w3.org/2000/svg"
   xmlns:sodipodi="http://sodipodi.sourceforge.net/DTD/sodipodi-0.dtd"
   xmlns:inkscape="http://www.inkscape.org/namespaces/inkscape"
   viewBox="0 0 84 84"
   version="1.1"
   xml:space="preserve"
   style=""
   x="0px"
   y="0px"
   fill-rule="evenodd"
   clip-rule="evenodd"
   stroke-linejoin="round"
   stroke-miterlimit="1.41421"
   id="svg2"
   inkscape:version="0.91 r13725"
   sodipodi:docname="633334.svg"><metadata
     id="metadata20"><rdf:RDF><cc:Work
         rdf:about=""><dc:format>image/svg+xml</dc:format><dc:type
           rdf:resource="http://purl.org/dc/dcmitype/StillImage" /></cc:Work></rdf:RDF></metadata><defs
     id="defs18" /><sodipodi:namedview
     pagecolor="#ffffff"
     bordercolor="#666666"
     borderopacity="1"
     objecttolerance="10"
     gridtolerance="10"
     guidetolerance="10"
     inkscape:pageopacity="0"
     inkscape:pageshadow="2"
     inkscape:window-width="1875"
     inkscape:window-height="1176"
     id="namedview16"
     showgrid="false"
     inkscape:zoom="2.8095238"
     inkscape:cx="91.830508"
     inkscape:cy="42"
     inkscape:window-x="45"
     inkscape:window-y="24"
     inkscape:window-maximized="1"
     inkscape:current-layer="svg2" /><g
     transform="matrix(0.33923547,1.5302884,-1.5302884,0.33923547,90.812896,-43.457367)"
     id="g4"
     style="fill:#404040;fill-opacity:1"><path
       inkscape:connector-curvature="0"
       d="m 42.027,15.604 c -1.755,-0.284 -3.544,-0.284 -5.298,0 l 0,3.33 c -1.291,0.262 -2.535,0.715 -3.692,1.343 l -2.14,-2.55 c -1.527,0.91 -2.898,2.06 -4.059,3.405 l 2.14,2.551 c -0.819,1.03 -1.481,2.177 -1.964,3.402 l -3.279,-0.578 c -0.585,1.678 -0.895,3.44 -0.92,5.218 l 3.279,0.578 c 0.035,1.316 0.264,2.62 0.682,3.869 l -2.883,1.664 c 0.631,1.662 1.525,3.211 2.649,4.589 l 2.883,-1.665 c 0.873,0.986 1.887,1.837 3.01,2.525 l -1.139,3.129 c 1.552,0.867 3.233,1.479 4.979,1.812 l 1.139,-3.129 c 1.302,0.195 2.626,0.195 3.928,0 l 1.139,3.129 c 1.746,-0.333 3.427,-0.945 4.979,-1.812 l -1.139,-3.129 c 1.122,-0.688 2.137,-1.539 3.009,-2.525 l 2.884,1.665 c 1.123,-1.378 2.018,-2.927 2.649,-4.589 l -2.884,-1.664 c 0.418,-1.249 0.648,-2.553 0.682,-3.869 l 3.279,-0.578 c -0.024,-1.778 -0.335,-3.54 -0.92,-5.218 l -3.279,0.578 C 51.259,25.86 50.597,24.713 49.777,23.683 l 2.14,-2.551 c -1.161,-1.345 -2.531,-2.495 -4.058,-3.405 l -2.141,2.55 c -1.157,-0.628 -2.401,-1.081 -3.691,-1.343 l 0,-3.33 z m -2.649,9.14 c 3.98,0 7.211,3.231 7.211,7.211 0,3.98 -3.231,7.211 -7.211,7.211 -3.98,0 -7.212,-3.231 -7.212,-7.211 0,-3.98 3.232,-7.211 7.212,-7.211 z"
       style="fill:#404040;fill-opacity:1"
       id="path6" /></g><g
     transform="matrix(0.26016493,1.1736039,-1.1736039,0.26016493,55.919295,8.0905685)"
     id="g8"
     style="fill:#404040;fill-opacity:1"><path
       inkscape:connector-curvature="0"
       d="m 42.027,15.604 c -1.755,-0.284 -3.544,-0.284 -5.298,0 l 0,3.33 c -1.291,0.262 -2.535,0.715 -3.692,1.343 l -2.14,-2.55 c -1.527,0.91 -2.898,2.06 -4.059,3.405 l 2.14,2.551 c -0.819,1.03 -1.481,2.177 -1.964,3.402 l -3.279,-0.578 c -0.585,1.678 -0.895,3.44 -0.92,5.218 l 3.279,0.578 c 0.035,1.316 0.264,2.62 0.682,3.869 l -2.883,1.664 c 0.631,1.662 1.525,3.211 2.649,4.589 l 2.883,-1.665 c 0.873,0.986 1.887,1.837 3.01,2.525 l -1.139,3.129 c 1.552,0.867 3.233,1.479 4.979,1.812 l 1.139,-3.129 c 1.302,0.195 2.626,0.195 3.928,0 l 1.139,3.129 c 1.746,-0.333 3.427,-0.945 4.979,-1.812 l -1.139,-3.129 c 1.122,-0.688 2.137,-1.539 3.009,-2.525 l 2.884,1.665 c 1.123,-1.378 2.018,-2.927 2.649,-4.589 l -2.884,-1.664 c 0.418,-1.249 0.648,-2.553 0.682,-3.869 l 3.279,-0.578 c -0.024,-1.778 -0.335,-3.54 -0.92,-5.218 l -3.279,0.578 C 51.259,25.86 50.597,24.713 49.777,23.683 l 2.14,-2.551 c -1.161,-1.345 -2.531,-2.495 -4.058,-3.405 l -2.141,2.55 c -1.157,-0.628 -2.401,-1.081 -3.691,-1.343 l 0,-3.33 z m -2.649,9.14 c 3.98,0 7.211,3.231 7.211,7.211 0,3.98 -3.231,7.211 -7.211,7.211 -3.98,0 -7.212,-3.231 -7.212,-7.211 0,-3.98 3.232,-7.211 7.212,-7.211 z"
       style="fill:#404040;fill-opacity:1"
       id="path10" /></g><g
     transform="matrix(-0.00514242,0.8225435,-0.8225435,-0.00514242,42.695112,-0.63420301)"
     id="g12"
     style="fill:#bbbdc0;fill-opacity:1"><path
       inkscape:connector-curvature="0"
       d="m 42.027,15.604 c -1.755,-0.284 -3.544,-0.284 -5.298,0 l 0,3.33 c -1.291,0.262 -2.535,0.715 -3.692,1.343 l -2.14,-2.55 c -1.527,0.91 -2.898,2.06 -4.059,3.405 l 2.14,2.551 c -0.819,1.03 -1.481,2.177 -1.964,3.402 l -3.279,-0.578 c -0.585,1.678 -0.895,3.44 -0.92,5.218 l 3.279,0.578 c 0.035,1.316 0.264,2.62 0.682,3.869 l -2.883,1.664 c 0.631,1.662 1.525,3.211 2.649,4.589 l 2.883,-1.665 c 0.873,0.986 1.887,1.837 3.01,2.525 l -1.139,3.129 c 1.552,0.867 3.233,1.479 4.979,1.812 l 1.139,-3.129 c 1.302,0.195 2.626,0.195 3.928,0 l 1.139,3.129 c 1.746,-0.333 3.427,-0.945 4.979,-1.812 l -1.139,-3.129 c 1.122,-0.688 2.137,-1.539 3.009,-2.525 l 2.884,1.665 c 1.123,-1.378 2.018,-2.927 2.649,-4.589 l -2.884,-1.664 c 0.418,-1.249 0.648,-2.553 0.682,-3.869 l 3.279,-0.578 c -0.024,-1.778 -0.335,-3.54 -0.92,-5.218 l -3.279,0.578 C 51.259,25.86 50.597,24.713 49.777,23.683 l 2.14,-2.551 c -1.161,-1.345 -2.531,-2.495 -4.058,-3.405 l -2.141,2.55 c -1.157,-0.628 -2.401,-1.081 -3.691,-1.343 l 0,-3.33 z m -2.649,9.14 c 3.98,0 7.211,3.231 7.211,7.211 0,3.98 -3.231,7.211 -7.211,7.211 -3.98,0 -7.212,-3.231 -7.212,-7.211 0,-3.98 3.232,-7.211 7.212,-7.211 z"
       style="fill:#bbbdc0;fill-opacity:1"
       id="path14" /></g></svg>

<svg xmlns="http://www.w3.org/2000/svg" xmlns:xlink="http://www.w3.org/1999/xlink" viewBox="0 0 84 84" version="1.1" xml:space="preserve" style="" x="0px" y="0px" fill-rule="evenodd" clip-rule="evenodd" stroke-linejoin="round" stroke-miterlimit="1.41421"><g transform="matrix(-0.399258,1.13196,-1.13196,-0.399258,107.464,8.426)"><path d="M42.027,15.604C40.272,15.32 38.483,15.32 36.729,15.604L36.729,18.934C35.438,19.196 34.194,19.649 33.037,20.277L30.897,17.727C29.37,18.637 27.999,19.787 26.838,21.132L28.978,23.683C28.159,24.713 27.497,25.86 27.014,27.085L23.735,26.507C23.15,28.185 22.84,29.947 22.815,31.725L26.094,32.303C26.129,33.619 26.358,34.923 26.776,36.172L23.893,37.836C24.524,39.498 25.418,41.047 26.542,42.425L29.425,40.76C30.298,41.746 31.312,42.597 32.435,43.285L31.296,46.414C32.848,47.281 34.529,47.893 36.275,48.226L37.414,45.097C38.716,45.292 40.04,45.292 41.342,45.097L42.481,48.226C44.227,47.893 45.908,47.281 47.46,46.414L46.321,43.285C47.443,42.597 48.458,41.746 49.33,40.76L52.214,42.425C53.337,41.047 54.232,39.498 54.863,37.836L51.979,36.172C52.397,34.923 52.627,33.619 52.661,32.303L55.94,31.725C55.916,29.947 55.605,28.185 55.02,26.507L51.741,27.085C51.259,25.86 50.597,24.713 49.777,23.683L51.917,21.132C50.756,19.787 49.386,18.637 47.859,17.727L45.718,20.277C44.561,19.649 43.317,19.196 42.027,18.934L42.027,15.604ZM39.378,24.744C43.358,24.744 46.589,27.975 46.589,31.955C46.589,35.935 43.358,39.166 39.378,39.166C35.398,39.166 32.166,35.935 32.166,31.955C32.166,27.975 35.398,24.744 39.378,24.744Z" style="" fill="black"></path></g><g transform="matrix(-0.306198,0.868119,-0.868119,-0.306198,63.9098,27.7972)"><path d="M42.027,15.604C40.272,15.32 38.483,15.32 36.729,15.604L36.729,18.934C35.438,19.196 34.194,19.649 33.037,20.277L30.897,17.727C29.37,18.637 27.999,19.787 26.838,21.132L28.978,23.683C28.159,24.713 27.497,25.86 27.014,27.085L23.735,26.507C23.15,28.185 22.84,29.947 22.815,31.725L26.094,32.303C26.129,33.619 26.358,34.923 26.776,36.172L23.893,37.836C24.524,39.498 25.418,41.047 26.542,42.425L29.425,40.76C30.298,41.746 31.312,42.597 32.435,43.285L31.296,46.414C32.848,47.281 34.529,47.893 36.275,48.226L37.414,45.097C38.716,45.292 40.04,45.292 41.342,45.097L42.481,48.226C44.227,47.893 45.908,47.281 47.46,46.414L46.321,43.285C47.443,42.597 48.458,41.746 49.33,40.76L52.214,42.425C53.337,41.047 54.232,39.498 54.863,37.836L51.979,36.172C52.397,34.923 52.627,33.619 52.661,32.303L55.94,31.725C55.916,29.947 55.605,28.185 55.02,26.507L51.741,27.085C51.259,25.86 50.597,24.713 49.777,23.683L51.917,21.132C50.756,19.787 49.386,18.637 47.859,17.727L45.718,20.277C44.561,19.649 43.317,19.196 42.027,18.934L42.027,15.604ZM39.378,24.744C43.358,24.744 46.589,27.975 46.589,31.955C46.589,35.935 43.358,39.166 39.378,39.166C35.398,39.166 32.166,35.935 32.166,31.955C32.166,27.975 35.398,24.744 39.378,24.744Z" style="" fill="black"></path></g><g transform="matrix(-0.336456,0.532511,-0.532511,-0.336456,58.8484,16.7712)"><path d="M42.027,15.604C40.272,15.32 38.483,15.32 36.729,15.604L36.729,18.934C35.438,19.196 34.194,19.649 33.037,20.277L30.897,17.727C29.37,18.637 27.999,19.787 26.838,21.132L28.978,23.683C28.159,24.713 27.497,25.86 27.014,27.085L23.735,26.507C23.15,28.185 22.84,29.947 22.815,31.725L26.094,32.303C26.129,33.619 26.358,34.923 26.776,36.172L23.893,37.836C24.524,39.498 25.418,41.047 26.542,42.425L29.425,40.76C30.298,41.746 31.312,42.597 32.435,43.285L31.296,46.414C32.848,47.281 34.529,47.893 36.275,48.226L37.414,45.097C38.716,45.292 40.04,45.292 41.342,45.097L42.481,48.226C44.227,47.893 45.908,47.281 47.46,46.414L46.321,43.285C47.443,42.597 48.458,41.746 49.33,40.76L52.214,42.425C53.337,41.047 54.232,39.498 54.863,37.836L51.979,36.172C52.397,34.923 52.627,33.619 52.661,32.303L55.94,31.725C55.916,29.947 55.605,28.185 55.02,26.507L51.741,27.085C51.259,25.86 50.597,24.713 49.777,23.683L51.917,21.132C50.756,19.787 49.386,18.637 47.859,17.727L45.718,20.277C44.561,19.649 43.317,19.196 42.027,18.934L42.027,15.604ZM39.378,24.744C43.358,24.744 46.589,27.975 46.589,31.955C46.589,35.935 43.358,39.166 39.378,39.166C35.398,39.166 32.166,35.935 32.166,31.955C32.166,27.975 35.398,24.744 39.378,24.744Z" style="" fill="black"></path></g></svg>
